svgs/duotone/glasses-round.svg

<svg xmlns="http://www.w3.org/2000/svg" viewBox="0 0 576 512"><!-- Font Awesome Pro 6.0.0-alpha2 by @fontawesome - https://fontawesome.com License - https://fontawesome.com/license (Commercial License) --><defs><style>.fa-secondary{opacity:.4}</style></defs><path d="M136 432C87.414 432 48 392.582 48 344C48 295.414 87.414 256 136 256S224 295.414 224 344C224 392.582 184.586 432 136 432ZM440 432C391.414 432 352 392.582 352 344C352 295.414 391.414 256 440 256S528 295.414 528 344C528 392.582 488.586 432 440 432Z" class="fa-secondary"/><path d="M560.5 225.875L528.75 98.625C522 71.75 495 32 443.375 32C427.75 32 420.25 35 400.25 41.625C391.875 44.375 387.375 53.5 390.25 61.875L395.25 77C397.5 83.75 403.75 88 410.375 88C414 88 415.25 87.25 428.625 82.75C454.75 74.125 476.875 88.875 482.25 110.25L511.875 229C491 215.875 466.5 208 440 208C384.875 208 337.75 240.875 316.375 288H259.625C238.25 240.875 191.125 208 136 208C109.5 208 85 215.875 64.125 229L93.75 110.25C99.125 88.875 121.25 74 147.375 82.75C160.75 87.25 162 88 165.625 88C172.25 88 178.5 83.75 180.75 77L185.75 61.875C188.625 53.5 184.125 44.375 175.75 41.625C155.75 35 148.25 32 132.625 32C81 32 54 71.75 47.25 98.625L15.5 225.875C2.125 279.375 0 300.125 0 344C0 419.125 60.875 480 136 480C208.375 480 267 423.25 271.25 352H304.75C309 423.25 367.625 480 440 480C515.125 480 576 419.125 576 344C576 300.125 573.875 279.375 560.5 225.875ZM136 432C87.414 432 48 392.582 48 344C48 295.414 87.414 256 136 256S224 295.414 224 344C224 392.582 184.586 432 136 432ZM440 432C391.414 432 352 392.582 352 344C352 295.414 391.414 256 440 256S528 295.414 528 344C528 392.582 488.586 432 440 432Z" class="fa-primary"/></svg>

<svg xmlns="http://www.w3.org/2000/svg" viewBox="0 0 576 512"><!--! Font Awesome Pro 6.0.0-alpha3 by @fontawesome - https://fontawesome.com License - https://fontawesome.com/license (Commercial License) --><defs><style>.fa-secondary{opacity:.4}</style></defs><path class="fa-primary" d="M560.5 225.9L528.8 98.62C521.1 71.75 495 32 443.4 32c-15.62 0-23.12 2.1-43.13 9.625c-8.375 2.75-12.88 11.88-10 20.25l5 15.12C397.5 83.75 403.8 88 410.4 88c3.625 0 4.875-.75 18.25-5.25c26.12-8.625 48.25 6.125 53.63 27.5L511.9 229c-20.88-13.12-45.37-21-71.87-21c-55.13 0-102.2 32.88-123.6 80H259.6c-21.38-47.13-68.5-80-123.6-80c-26.5 0-51 7.877-71.88 21l29.63-118.8c5.375-21.38 27.5-36.25 53.63-27.5C160.8 87.25 161.1 88 165.6 88c6.625 0 12.88-4.25 15.13-11l5-15.12c2.875-8.375-1.625-17.5-10-20.25C155.8 34.1 148.3 32 132.6 32c-51.63 0-78.63 39.75-85.38 66.62L15.5 225.9C2.125 279.4 .0001 300.1 .0001 343.1c0 75.13 60.88 136 136 136c72.38 0 130.1-56.75 135.2-127.1h33.5c4.25 71.25 62.88 127.1 135.3 127.1c75.13 0 136-60.88 136-136C576 300.1 573.9 279.4 560.5 225.9zM136 432c-48.59 0-88-39.42-88-88c0-48.59 39.41-88 88-88s87.1 39.41 87.1 88C224 392.6 184.6 432 136 432zM440 432c-48.59 0-88-39.42-88-88c0-48.59 39.41-88 88-88s88 39.41 88 88C528 392.6 488.6 432 440 432z"/><path class="fa-secondary" d="M136 432c-48.59 0-88-39.42-88-88c0-48.59 39.41-88 88-88s87.1 39.41 87.1 88C224 392.6 184.6 432 136 432zM440 432c-48.59 0-88-39.42-88-88c0-48.59 39.41-88 88-88s88 39.41 88 88C528 392.6 488.6 432 440 432z"/></svg>
